X: 36
T:The Spanyard
M:6/8
L:1/8
Q:100
R:Jig
K:DMix
fdd dc/2d/2A|ddc/2d/2 e2A|fdf fe/2f/2d|fgf/2g/2 a3||
eee cB/2c/2A|fe/2f/2d g2a|bag a>2 gf/2e/2|fed/2e/2 d3||

